X: 4
T: Slacker Song
C: Anon.
%%abc-version 2.0
%%abcx-abcm2ps-target-version 5.9.1 (29 Sep 2008)
%%abc-creator hum2abc beta
%%abcx-conversion-date 2020/08/10 20:56:09
%%abc-copyright Electronic Copyright 2000 David Huron
%%abc-edited-by David Huron
%%abcx-initial-encoding-date August 27, 2000
%%humdrum-veritas 4289238765
%%humdrum-veritas-data 2360007559
%%linebreak <none>
%%barnumbers 0
L: 1/8
M: 2/4
Q: 1/4=84
K: A clef=bass
z2z A, | 
F,2A,2 | 
A,2F, F,[M:3/8] | 
F,2E,[M:5/8] | 
E,3E,2[M:7/8] | 
F, E, E, E, E, z B,[M:2/4] | 
B,2z2 | 
A,2F, F,[M:3/8] | 
F, z E,[M:5/8] | 
E,3E,2[M:7/8] | 
F,> E, E, F, E, z A,[M:2/4] | 
F,2B,2 | 
A,2F, F,[M:3/8] | 
F, z E,[M:5/8] | 
E,2zE,2[M:2/4] | 
F,> E, E, F, | 
E, z E, E, | 
B,> B,B,2 | 
A,2F, E, | 
E,2F, E,[M:5/8] | 
B,> B,B,2A,[M:3/8] | 
F, z B,[M:2/4] | 
B,> A,F,2 | 
A,> A, A,3/ F,/ | 
F,2A,2 | 
F,< F, F, z | 
E, E,- E, E, | 
E,2F,3/ E,/[M:5/8] | 
E, E,E,2A,[M:2/4] | 
F,2B,2 | 
A,2F, F,[M:3/8] | 
F, z E,[M:5/8] | 
E,2zE,2[M:2/4] | 
F,> E, E, F, | 
E,2z A,F,2A,2 | 
A,2F, F,[M:3/8] | 
F,2E,[M:5/8] | 
E,3E,2[M:7/8] | 
F, E, E, E, E, z B,[M:2/4] | 
B,2z2 | 
A,2F, F,[M:3/8] | 
F, z E,[M:5/8] | 
E,3E,2[M:7/8] | 
F,> E, E, F, E, z A,[M:2/4] | 
F,2B,2 | 
A,2F, F,[M:3/8] | 
F, z E,[M:5/8] | 
E,2zE,2[M:2/4] | 
F,> E, E, F, | 
E, z |]  


